X: 40104
T: Tickle Her Leg With The Barley Straw
R: jig
M: 6/8
K: Bminor
F2B BAF|A2A AFE|F2B BAF|Ade fdB|
F2B BAF|A3 ABc|def e2c|1 B3 B2A:|2 B3 Bde||
f2b baf|a3 afe|f2b baf|a3 aba|
f2b baf|e3 ABc|def e2c|1 B3 Bde:|2 B3 ~B2A||

